P3
63 80
255
0 0 0  0 0 0  0 0 0  0 0 0  0 0 0  0 0 0
0 0 0  0 0 0  0 0 0  0 0 0  0 0 0  0 0 0
0 0 0  0 0 0  0 0 0  0 0 0  0 0 0  0 0 0
0 0 0  0 0 0  0 0 0  0 0 0  0 0 0  0 0 0
0 0 0  0 0 0  0 0 0  0 0 0  0 0 0  0 0 0
0 0 0  0 0 0  0 0 0  0 0 0  0 0 0  0 0 0
0 0 0  0 0 0  0 0 0  0 0 0  0 0 0  0 0 0
0 0 0  0 0 0  0 0 0  0 0 0  0 0 0  0 0 0
0 0 0  0 0 0  0 0 0  0 0 0  0 0 0  0 0 0
0 0 0  0 0 0  0 0 0  0 0 0  0 0 0  0 0 0
0 0 0  0 0 0  0 0 0
0 0 0  0 0 0  0 0 0  0 0 0  0 0 0  0 0 0
0 0 0  0 0 0  0 0 0  0 0 0  0 0 0  0 0 0
0 0 0  0 0 0  0 0 0  0 0 0  0 0 0  0 0 0
0 0 0  0 0 0  0 0 0  0 0 0  0 0 0  0 0 0
0 0 0  0 0 0  0 0 0  0 0 0  0 0 0  0 0 0
0 0 0  0 0 0  0 0 0  0 0 0  0 0 0  0 0 0
0 0 0  0 0 0  0 0 0  0 0 0  0 0 0  0 0 0
0 0 0  0 0 0  0 0 0  0 0 0  0 0 0  0 0 0
0 0 0  0 0 0  0 0 0  0 0 0  0 0 0  0 0 0
0 0 0  0 0 0  0 0 0  0 0 0  0 0 0  0 0 0
0 0 0  0 0 0  0 0 0
0 0 0  0 0 0  0 0 0  0 0 0  0 0 0  0 0 0
0 0 0  0 0 0  0 0 0  0 0 0  0 0 0  0 0 0
0 0 0  0 0 0  0 0 0  0 0 0  0 0 0  0 0 0
0 0 0  0 0 0  0 0 0  0 0 0  0 0 0  0 0 0
0 0 0  0 0 0  0 0 0  0 0 0  0 0 0  0 0 0
0 0 0  0 0 0  0 0 0  0 0 0  0 0 0  0 0 0
0 0 0  0 0 0  0 0 0  0 0 0  0 0 0  0 0 0
0 0 0  0 0 0  0 0 0  0 0 0  0 0 0  0 0 0
0 0 0  0 0 0  0 0 0  0 0 0  0 0 0  0 0 0
0 0 0  0 0 0  0 0 0  0 0 0  0 0 0  0 0 0
0 0 0  0 0 0  0 0 0
0 0 0  0 0 0  0 0 0  0 0 0  0 0 0  0 0 0
0 0 0  0 0 0  0 0 0  0 0 0  0 0 0  0 0 0
0 0 0  0 0 0  0 0 0  0 0 0  0 0 0  0 0 0
0 0 0  0 0 0  0 0 0  0 0 0  0 0 0  0 0 0
0 0 0  0 0 0  0 0 0  0 0 0  0 0 0  0 0 0
0 0 0  0 0 0  0 0 0  0 0 0  0 0 0  0 0 0
0 0 0  0 0 0  0 0 0  0 0 0  0 0 0  0 0 0
0 0 0  0 0 0  0 0 0  0 0 0  0 0 0  0 0 0
0 0 0  0 0 0  0 0 0  0 0 0  0 0 0  0 0 0
0 0 0  0 0 0  0 0 0  0 0 0  0 0 0  0 0 0
0 0 0  0 0 0  0 0 0
0 0 0  0 0 0  0 0 0  0 0 0  0 0 0  0 0 0
0 0 0  0 0 0  0 0 0  0 0 0  0 0 0  0 0 0
0 0 0  0 0 0  0 0 0  0 0 0  0 0 0  0 0 0
0 0 0  0 0 0  0 0 0  0 0 0  0 0 0  0 0 0
0 0 0  0 0 0  0 0 0  0 0 0  0 0 0  0 0 0
0 0 0  0 0 0  0 0 0  0 0 0  0 0 0  0 0 0
0 0 0  0 0 0  0 0 0  0 0 0  0 0 0  0 0 0
0 0 0  0 0 0  0 0 0  0 0 0  0 0 0  0 0 0
0 0 0  0 0 0  0 0 0  0 0 0  0 0 0  0 0 0
0 0 0  0 0 0  0 0 0  0 0 0  0 0 0  0 0 0
0 0 0  0 0 0  0 0 0
0 0 0  0 0 0  0 0 0  0 0 0  0 0 0  0 0 0
0 0 0  0 0 0  0 0 0  0 0 0  0 0 0  0 0 0
0 0 0  0 0 0  0 0 0  0 0 0  0 0 0  0 0 0
0 0 0  0 0 0  0 0 0  0 0 0  0 0 0  0 0 0
0 0 0  0 0 0  0 0 0  0 0 0  0 0 0  0 0 0
0 0 0  0 0 0  0 0 0  0 0 0  0 0 0  0 0 0
0 0 0  0 0 0  0 0 0  0 0 0  0 0 0  0 0 0
0 0 0  0 0 0  0 0 0  0 0 0  0 0 0  0 0 0
0 0 0  0 0 0  0 0 0  0 0 0  0 0 0  0 0 0
0 0 0  0 0 0  0 0 0  0 0 0  0 0 0  0 0 0
0 0 0  0 0 0  0 0 0
0 0 0  0 0 0  0 0 0  0 0 0  0 0 0  0 0 0
0 0 0  0 0 0  0 0 0  0 0 0  0 0 0  0 0 0
0 0 0  0 0 0  0 0 0  0 0 0  0 0 0  0 0 0
0 0 0  0 0 0  0 0 0  0 0 0  0 0 0  0 0 0
0 0 0  0 0 0  0 0 0  0 0 0  0 0 0  0 0 0
0 0 0  0 0 0  0 0 0  0 0 0  0 0 0  0 0 0
0 0 0  0 0 0  0 0 0  0 0 0  0 0 0  0 0 0
0 0 0  0 0 0  0 0 0  0 0 0  0 0 0  0 0 0
0 0 0  0 0 0  0 0 0  0 0 0  0 0 0  0 0 0
0 0 0  0 0 0  0 0 0  0 0 0  0 0 0  0 0 0
0 0 0  0 0 0  0 0 0
0 0 0  0 0 0  0 0 0  0 0 0  0 0 0  0 0 0
0 0 0  0 0 0  0 0 0  0 0 0  0 0 0  0 0 0
0 0 0  0 0 0  0 0 0  0 0 0  0 0 0  0 0 0
0 0 0  0 0 0  0 0 0  0 0 0  0 0 0  0 0 0
0 0 0  0 0 0  0 0 0  0 0 0  0 0 0  0 0 0
0 0 0  0 0 0  0 0 0  0 0 0  0 0 0  0 0 0
0 0 0  0 0 0  0 0 0  0 0 0  0 0 0  0 0 0
0 0 0  0 0 0  0 0 0  0 0 0  0 0 0  0 0 0
0 0 0  0 0 0  0 0 0  0 0 0  0 0 0  0 0 0
0 0 0  0 0 0  0 0 0  0 0 0  0 0 0  0 0 0
0 0 0  0 0 0  0 0 0
0 0 0  0 0 0  0 0 0  0 0 0  0 0 0  0 0 0
0 0 0  0 0 0  0 0 0  0 0 0  0 0 0  0 0 0
0 0 0  0 0 0  0 0 0  0 0 0  0 0 0  0 0 0
0 0 0  0 0 0  0 0 0  0 0 0  0 0 0  0 0 0
0 0 0  0 0 0  0 0 0  0 0 0  0 0 0  0 0 0
0 0 0  0 0 0  0 0 0  0 0 0  0 0 0  0 0 0
0 0 0  0 0 0  0 0 0  0 0 0  0 0 0  0 0 0
0 0 0  0 0 0  0 0 0  0 0 0  0 0 0  0 0 0
0 0 0  0 0 0  0 0 0  0 0 0  0 0 0  0 0 0
0 0 0  0 0 0  0 0 0  0 0 0  0 0 0  0 0 0
0 0 0  0 0 0  0 0 0
0 0 0  0 0 0  0 0 0  0 0 0  0 0 0  0 0 0
0 0 0  0 0 0  0 0 0  0 0 0  0 0 0  0 0 0
0 0 0  0 0 0  0 0 0  0 0 0  0 0 0  0 0 0
0 0 0  0 0 0  0 0 0  0 0 0  0 0 0  0 0 0
0 0 0  0 0 0  0 0 0  0 0 0  0 0 0  0 0 0
0 0 0  0 0 0  0 0 0  0 0 0  0 0 0  0 0 0
0 0 0  0 0 0  0 0 0  0 0 0  0 0 0  0 0 0
0 0 0  0 0 0  0 0 0  0 0 0  0 0 0  0 0 0
0 0 0  0 0 0  0 0 0  0 0 0  0 0 0  0 0 0
0 0 0  0 0 0  0 0 0  0 0 0  0 0 0  0 0 0
0 0 0  0 0 0  0 0 0
0 0 0  0 0 0  0 0 0  0 0 0  0 0 0  0 0 0
0 0 0  0 0 0  0 0 0  0 0 0  0 0 0  0 0 0
0 0 0  0 0 0  0 0 0  0 0 0  0 0 0  0 0 0
0 0 0  0 0 0  0 0 0  0 0 0  0 0 0  0 0 0
0 0 0  0 0 0  0 0 0  0 0 0  0 0 0  0 0 0
0 0 0  0 0 0  0 0 0  0 0 0  0 0 0  0 0 0
0 0 0  0 0 0  0 0 0  0 0 0  0 0 0  0 0 0
0 0 0  0 0 0  0 0 0  0 0 0  0 0 0  0 0 0
0 0 0  0 0 0  0 0 0  0 0 0  0 0 0  0 0 0
0 0 0  0 0 0  0 0 0  0 0 0  0 0 0  0 0 0
0 0 0  0 0 0  0 0 0
0 0 0  0 0 0  0 0 0  0 0 0  0 0 0  0 0 0
0 0 0  0 0 0  0 0 0  0 0 0  0 0 0  0 0 0
0 0 0  0 0 0  0 0 0  0 0 0  0 0 0  0 0 0
0 0 0  0 0 0  0 0 0  0 0 0  0 0 0  0 0 0
0 0 0  0 0 0  0 0 0  0 0 0  0 0 0  0 0 0
0 0 0  0 0 0  0 0 0  0 0 0  0 0 0  0 0 0
0 0 0  0 0 0  0 0 0  0 0 0  0 0 0  0 0 0
0 0 0  0 0 0  0 0 0  0 0 0  0 0 0  0 0 0
0 0 0  0 0 0  0 0 0  0 0 0  0 0 0  0 0 0
0 0 0  0 0 0  0 0 0  0 0 0  0 0 0  0 0 0
0 0 0  0 0 0  0 0 0
0 0 0  0 0 0  0 0 0  0 0 0  0 0 0  0 0 0
0 0 0  0 0 0  0 0 0  0 0 0  0 0 0  0 0 0
0 0 0  0 0 0  0 0 0  0 0 0  0 0 0  0 0 0
0 0 0  0 0 0  0 0 0  0 0 0  0 0 0  0 0 0
0 0 0  0 0 0  0 0 0  0 0 0  0 0 0  0 0 0
0 0 0  0 0 0  0 0 0  0 0 0  0 0 0  0 0 0
0 0 0  0 0 0  0 0 0  0 0 0  0 0 0  0 0 0
0 0 0  0 0 0  0 0 0  0 0 0  0 0 0  0 0 0
0 0 0  0 0 0  0 0 0  0 0 0  0 0 0  0 0 0
0 0 0  0 0 0  0 0 0  0 0 0  0 0 0  0 0 0
0 0 0  0 0 0  0 0 0
0 0 0  0 0 0  0 0 0  0 0 0  0 0 0  0 0 0
0 0 0  0 0 0  0 0 0  0 0 0  0 0 0  0 0 0
0 0 0  0 0 0  0 0 0  0 0 0  0 0 0  0 0 0
0 0 0  0 0 0  0 0 0  0 0 0  0 0 0  0 0 0
0 0 0  0 0 0  0 0 0  0 0 0  0 0 0  0 0 0
0 0 0  0 0 0  0 0 0  0 0 0  0 0 0  0 0 0
0 0 0  0 0 0  0 0 0  0 0 0  0 0 0  0 0 0
0 0 0  0 0 0  0 0 0  0 0 0  0 0 0  0 0 0
0 0 0  0 0 0  0 0 0  0 0 0  0 0 0  0 0 0
0 0 0  0 0 0  0 0 0  0 0 0  0 0 0  0 0 0
0 0 0  0 0 0  0 0 0
0 0 0  0 0 0  0 0 0  0 0 0  0 0 0  0 0 0
0 0 0  0 0 0  0 0 0  0 0 0  0 0 0  0 0 0
0 0 0  0 0 0  0 0 0  0 0 0  0 0 0  0 0 0
0 16 38  0 26 64  0 28 69  0 28 67  0 28 67  0 28 67
0 28 67  0 28 67  0 28 67  0 28 67  0 28 67  0 28 67
0 28 67  0 28 67  0 28 67  0 28 67  0 28 67  0 28 67
0 28 67  0 28 67  0 28 67  0 28 67  0 28 67  0 28 67
0 28 67  0 28 67  0 28 67  0 28 67  0 28 67  0 28 67
0 28 67  0 28 67  0 28 67  0 28 67  0 28 67  0 28 67
0 28 67  0 29 69  0 26 61  0 1 4  0 0 0  0 0 0
0 0 0  0 0 0  0 0 0
0 0 0  0 0 0  0 0 0  0 0 0  0 0 0  0 0 0
0 0 0  0 0 0  0 0 0  0 0 0  0 0 0  0 0 0
0 0 0  0 0 0  0 0 0  0 0 0  0 2 4  0 36 86
0 58 138  0 64 152  0 64 152  0 63 152  0 64 152  0 63 152
0 64 152  0 64 152  0 64 152  0 64 152  0 64 152  0 64 152
0 63 152  0 64 152  0 64 152  0 64 152  0 64 152  0 64 152
0 64 152  0 64 152  0 63 152  0 64 152  0 64 152  0 64 152
0 64 152  0 64 152  0 64 152  0 63 152  0 63 152  0 64 152
0 64 152  0 64 152  0 64 152  0 64 152  0 64 152  0 64 152
0 64 152  0 64 152  0 63 152  0 35 85  0 0 0  0 0 0
0 0 0  0 0 0  0 0 0
0 0 0  0 0 0  0 0 0  0 0 0  0 0 0  0 0 0
0 0 0  0 0 0  0 0 0  0 0 0  0 0 0  0 0 0
0 0 0  0 0 0  0 0 0  0 3 7  0 53 128  0 63 152
0 64 152  0 64 152  0 64 152  0 64 152  0 64 152  0 64 152
0 64 152  0 64 152  0 64 152  0 64 152  0 64 152  0 63 152
0 64 152  0 63 152  0 64 152  0 64 152  0 64 152  0 63 152
0 64 152  0 64 152  0 64 152  0 64 152  0 64 152  0 63 152
0 64 152  0 64 152  0 64 152  0 63 152  0 64 152  0 64 152
0 64 152  0 63 152  0 63 152  0 63 152  0 64 152  0 64 152
0 64 153  0 64 152  0 64 152  0 64 152  0 13 32  0 0 0
0 0 0  0 0 0  0 0 0
0 0 0  0 0 0  0 0 0  0 0 0  0 0 0  0 0 0
0 0 0  0 0 0  0 0 0  0 0 0  0 0 0  0 0 0
0 0 0  0 0 0  0 3 7  0 55 134  0 64 152  0 64 152
0 64 152  0 64 152  0 64 152  0 64 152  0 64 152  0 64 152
0 64 152  0 64 152  0 63 152  0 64 152  0 64 152  0 64 152
0 64 152  0 64 152  0 64 152  0 63 152  0 64 152  0 64 152
0 64 152  0 64 152  0 64 152  0 64 152  0 64 152  0 64 152
0 64 152  0 64 152  0 64 152  0 64 152  0 64 152  0 64 152
0 64 152  0 63 152  0 64 152  0 64 152  0 64 152  0 64 152
0 64 152  0 64 152  0 64 152  0 64 152  0 20 48  0 0 0
0 0 0  0 0 0  0 0 0
0 0 0  0 0 0  0 0 0  0 0 0  0 0 0  0 0 0
0 0 0  0 0 0  0 0 0  0 0 0  0 0 0  0 0 0
0 0 0  0 0 0  0 32 76  0 63 152  0 64 152  0 64 152
0 64 152  0 64 152  0 64 152  0 63 152  0 64 152  0 64 152
0 64 152  0 64 152  0 63 152  0 63 152  0 64 152  0 64 152
0 64 152  0 64 152  0 64 152  0 64 152  0 64 152  0 64 152
0 63 152  0 64 152  0 64 152  0 64 152  0 64 152  0 64 152
0 64 152  0 64 152  0 64 152  0 63 152  0 63 152  0 64 152
0 64 152  0 64 152  0 64 152  0 64 152  0 64 152  0 63 152
0 64 152  0 64 152  0 64 152  0 62 147  0 3 7  0 0 0
0 0 0  0 0 0  0 0 0
0 0 0  0 0 0  0 0 0  0 0 0  0 0 0  0 0 0
0 0 0  0 0 0  0 0 0  0 0 0  0 0 0  0 0 0
0 0 0  0 0 0  0 46 110  0 64 152  0 64 152  0 64 152
0 63 152  0 64 152  0 64 152  0 64 152  0 64 152  0 64 152
0 64 152  0 64 152  0 64 152  0 64 152  0 64 152  0 63 152
0 64 152  0 64 152  0 64 152  0 64 152  0 64 152  0 63 152
0 64 152  0 64 152  0 63 152  0 64 152  0 64 152  0 64 152
0 64 152  0 63 152  0 64 152  0 64 152  0 63 152  0 64 152
0 64 152  0 64 152  0 64 152  0 63 152  0 64 152  0 64 152
0 64 152  0 64 152  0 64 152  0 46 110  0 0 0  0 0 0
0 0 0  0 0 0  0 0 0
0 0 0  0 0 0  0 0 0  0 0 0  0 0 0  0 0 0
0 0 0  0 0 0  0 0 0  0 0 0  0 0 0  0 0 0
0 0 0  0 0 0  0 58 139  0 64 152  0 64 152  0 64 152
0 64 152  0 64 152  0 63 152  0 64 152  0 63 152  0 64 152
0 64 152  0 64 152  0 64 152  0 64 152  0 64 152  0 64 152
0 64 152  0 63 152  0 64 152  0 64 152  0 64 152  0 64 152
0 64 152  0 64 152  0 63 152  0 64 152  0 64 152  0 64 152
0 64 152  0 64 152  0 64 152  0 63 152  0 64 152  0 64 152
0 64 152  0 64 152  0 64 152  0 64 152  0 64 152  0 64 152
0 63 152  0 64 152  0 64 152  0 34 83  0 0 0  0 0 0
0 0 0  0 0 0  0 0 0
0 0 0  0 0 0  0 0 0  0 0 0  0 0 0  0 0 0
0 0 0  0 0 0  0 0 0  0 0 0  0 0 0  0 0 0
0 0 0  0 12 28  0 64 152  0 64 152  0 64 152  0 64 152
0 64 152  0 63 152  0 64 152  0 64 152  0 64 152  0 64 152
0 64 152  0 64 152  0 64 152  0 64 152  0 64 152  0 64 152
0 63 152  0 64 152  0 64 152  0 64 152  0 63 152  0 63 152
0 64 152  0 64 152  0 64 152  0 64 152  0 63 152  0 64 152
0 64 152  0 64 152  0 63 152  0 63 152  0 64 152  0 64 152
0 64 152  0 63 152  0 64 152  0 64 152  0 64 152  0 64 152
0 64 152  0 64 152  0 64 152  0 25 61  0 0 0  0 0 0
0 0 0  0 0 0  0 0 0
0 0 0  0 0 0  0 0 0  0 0 0  0 0 0  0 0 0
0 0 0  0 0 0  0 0 0  0 0 0  0 0 0  0 0 0
0 0 0  0 31 75  0 63 152  0 64 152  0 64 152  0 64 152
0 64 152  0 64 152  0 64 152  0 64 152  0 64 152  0 64 152
0 64 152  0 64 152  0 64 152  0 64 152  0 64 152  0 64 152
0 64 152  0 64 152  0 64 152  0 63 152  0 64 152  0 64 152
0 64 152  0 64 152  0 64 152  0 64 152  0 63 152  0 64 152
0 64 152  0 64 152  0 63 152  0 63 152  0 64 152  0 64 152
0 64 152  0 64 152  0 64 152  0 64 152  0 64 152  0 63 152
0 63 152  0 64 152  0 64 152  0 7 16  0 0 0  0 0 0
0 0 0  0 0 0  0 0 0
0 0 0  0 0 0  0 0 0  0 0 0  0 0 0  0 0 0
0 0 0  0 0 0  0 0 0  0 0 0  0 0 0  0 0 0
0 0 0  0 51 122  0 64 152  0 64 152  0 64 152  0 64 152
0 64 152  0 63 152  0 64 152  0 63 152  0 64 152  0 64 152
0 63 152  0 64 152  0 64 152  0 64 152  0 63 152  0 64 152
0 64 152  0 64 152  0 64 152  0 63 152  0 64 152  0 64 152
0 63 152  0 64 152  0 63 152  0 64 152  0 64 152  0 64 153
0 64 152  0 63 152  0 64 152  0 64 152  0 64 152  0 64 152
0 64 152  0 63 152  0 63 152  0 64 152  0 64 152  0 64 152
0 64 152  0 64 152  0 51 122  0 0 0  0 0 0  0 0 0
0 0 0  0 0 0  0 0 0
0 0 0  0 0 0  0 0 0  0 0 0  0 0 0  0 0 0
0 0 0  0 0 0  0 0 0  0 0 0  0 0 0  0 0 0
0 4 9  0 64 152  0 64 152  0 63 152  0 63 152  0 63 152
0 64 152  0 64 152  0 64 152  0 63 152  0 63 152  0 64 152
0 64 152  0 63 152  0 64 152  0 64 152  0 64 152  0 64 152
0 64 152  0 63 152  0 64 152  0 64 152  0 64 152  0 64 152
0 64 152  0 64 152  0 64 152  0 63 152  0 64 152  0 64 153
0 63 152  0 64 152  0 64 152  0 64 152  0 64 152  0 64 152
0 64 152  0 64 152  0 64 152  0 64 152  0 64 152  0 64 152
0 64 152  0 64 152  0 34 82  0 0 0  0 0 0  0 0 0
0 0 0  0 0 0  0 0 0
0 0 0  0 0 0  0 0 0  0 0 0  0 0 0  0 0 0
0 0 0  0 0 0  0 0 0  0 0 0  0 0 0  0 0 0
0 23 56  0 63 152  0 64 152  0 64 152  0 64 152  0 63 152
0 63 152  0 64 152  0 64 152  0 64 152  0 64 152  0 64 152
0 64 152  0 64 152  0 63 152  0 64 152  0 64 152  0 64 152
0 64 152  0 64 152  0 64 152  0 63 152  0 64 152  0 64 152
0 64 152  0 64 153  0 64 152  0 63 152  0 63 152  0 64 152
0 64 152  0 64 152  0 63 152  0 63 152  0 64 152  0 64 152
0 64 152  0 64 152  0 64 152  0 64 152  0 64 152  0 64 152
0 64 152  0 64 152  0 14 33  0 0 0  0 0 0  0 0 0
0 0 0  0 0 0  0 0 0
0 0 0  0 0 0  0 0 0  0 0 0  0 0 0  0 0 0
0 0 0  0 0 0  0 0 0  0 0 0  0 0 0  0 0 0
0 42 101  0 64 152  0 63 152  0 63 152  0 64 152  0 64 152
0 64 152  0 63 152  0 64 152  0 63 152  0 64 152  0 64 152
0 50 122  0 50 119  0 50 119  0 49 119  0 50 119  0 49 119
0 50 119  0 50 119  0 50 119  0 50 119  0 50 119  0 50 119
0 50 119  0 50 119  0 50 119  0 50 119  0 49 119  0 58 141
0 63 152  0 64 152  0 64 152  0 64 152  0 64 152  0 64 152
0 64 152  0 64 152  0 64 152  0 64 152  0 63 152  0 63 152
0 63 152  0 60 143  0 0 0  0 0 0  0 0 0  0 0 0
0 0 0  0 0 0  0 0 0
0 0 0  0 0 0  0 0 0  0 0 0  0 0 0  0 0 0
0 0 0  0 0 0  0 0 0  0 0 0  0 0 0  0 0 0
0 54 129  0 64 152  0 64 152  0 64 152  0 64 152  0 64 152
0 64 152  0 63 152  0 64 152  0 64 152  0 62 148  0 16 38
0 0 0  0 0 0  0 0 0  0 0 0  0 0 0  0 0 0
0 0 0  0 0 0  0 0 0  0 0 0  0 0 0  0 0 0
0 0 0  0 0 0  0 0 0  0 0 0  0 0 0  0 2 5
0 45 108  0 64 152  0 64 152  0 64 152  0 64 152  0 64 152
0 64 152  0 64 152  0 64 152  0 63 152  0 64 152  0 64 152
0 64 152  0 42 99  0 0 0  0 0 0  0 0 0  0 0 0
0 0 0  0 0 0  0 0 0
0 0 0  0 0 0  0 0 0  0 0 0  0 0 0  0 0 0
0 0 0  0 0 0  0 0 0  0 0 0  0 0 0  0 2 5
0 62 148  0 64 152  0 64 152  0 64 152  0 64 152  0 64 152
0 64 152  0 64 152  0 64 152  0 64 152  0 33 80  0 0 0
0 0 0  0 0 0  0 0 0  0 0 0  0 0 0  0 0 0
0 0 0  0 0 0  0 0 0  0 0 0  0 0 0  0 0 0
0 0 0  0 0 0  0 0 0  0 0 0  0 0 0  0 0 0
0 0 0  0 62 148  0 63 152  0 63 152  0 64 152  0 64 152
0 64 152  0 64 152  0 64 152  0 64 152  0 64 152  0 64 152
0 64 152  0 26 61  0 0 0  0 0 0  0 0 0  0 0 0
0 0 0  0 0 0  0 0 0
0 0 0  0 0 0  0 0 0  0 0 0  0 0 0  0 0 0
0 0 0  0 0 0  0 0 0  0 0 0  0 0 0  0 16 37
0 64 152  0 64 152  0 64 152  0 63 152  0 64 152  0 64 153
0 64 152  0 63 152  0 63 152  0 63 152  0 14 34  0 0 0
0 0 0  0 0 0  0 0 0  0 0 0  0 0 0  0 0 0
0 0 0  0 0 0  0 0 0  0 0 0  0 0 0  0 0 0
0 0 0  0 0 0  0 0 0  0 0 0  0 0 0  0 0 0
0 2 5  0 62 148  0 64 152  0 64 152  0 64 152  0 64 152
0 64 152  0 64 152  0 64 152  0 64 152  0 64 152  0 64 152
0 64 152  0 19 44  0 0 0  0 0 0  0 0 0  0 0 0
0 0 0  0 0 0  0 0 0
0 0 0  0 0 0  0 0 0  0 0 0  0 0 0  0 0 0
0 0 0  0 0 0  0 0 0  0 0 0  0 0 0  0 35 84
0 64 152  0 63 152  0 64 152  0 64 152  0 64 152  0 64 152
0 64 152  0 64 152  0 64 152  0 58 138  0 1 2  0 0 0
0 0 0  0 0 0  0 0 0  0 0 0  0 0 0  0 0 0
0 0 0  0 0 0  0 0 0  0 0 0  0 0 0  0 0 0
0 0 0  0 0 0  0 0 0  0 0 0  0 0 0  0 0 0
0 22 53  0 64 152  0 64 152  0 64 152  0 64 152  0 63 152
0 64 152  0 63 152  0 64 152  0 64 152  0 64 152  0 64 152
0 60 142  0 3 7  0 0 0  0 0 0  0 0 0  0 0 0
0 0 0  0 0 0  0 0 0
0 0 0  0 0 0  0 0 0  0 0 0  0 0 0  0 0 0
0 0 0  0 0 0  0 0 0  0 0 0  0 0 0  0 55 132
0 64 152  0 64 152  0 64 152  0 64 152  0 64 152  0 64 152
0 64 152  0 64 152  0 64 152  0 38 91  0 0 0  0 0 0
0 0 0  0 0 0  0 0 0  0 0 0  0 0 0  0 0 0
0 0 0  0 0 0  0 0 0  0 0 0  0 0 0  0 0 0
0 0 0  0 0 0  0 0 0  0 0 0  0 0 0  0 0 0
0 42 101  0 64 152  0 63 152  0 64 152  0 64 152  0 63 152
0 64 152  0 64 152  0 64 152  0 64 152  0 64 152  0 64 152
0 17 41  0 0 0  0 0 0  0 0 0  0 0 0  0 0 0
0 0 0  0 0 0  0 0 0
0 0 0  0 0 0  0 0 0  0 0 0  0 0 0  0 0 0
0 0 0  0 0 0  0 0 0  0 0 0  0 7 16  0 64 152
0 64 152  0 64 152  0 63 152  0 64 152  0 64 152  0 64 152
0 64 152  0 63 152  0 63 152  0 46 108  0 0 0  0 0 0
0 0 0  0 0 0  0 0 0  0 0 0  0 0 0  0 0 0
0 0 0  0 0 0  0 0 0  0 0 0  0 0 0  0 0 0
0 0 0  0 0 0  0 0 0  0 0 0  0 0 0  0 0 0
0 58 141  0 64 152  0 64 152  0 63 152  0 64 152  0 64 152
0 64 152  0 64 152  0 64 152  0 64 152  0 64 152  0 31 75
0 0 0  0 0 0  0 0 0  0 0 0  0 0 0  0 0 0
0 0 0  0 0 0  0 0 0
0 0 0  0 0 0  0 0 0  0 0 0  0 0 0  0 0 0
0 0 0  0 0 0  0 0 0  0 0 0  0 27 65  0 64 152
0 64 152  0 64 152  0 63 152  0 64 152  0 64 152  0 64 152
0 64 152  0 64 152  0 63 152  0 64 152  0 36 86  0 7 16
0 2 6  0 3 7  0 0 0  0 0 0  0 0 0  0 0 0
0 0 0  0 0 0  0 0 0  0 0 0  0 0 0  0 2 5
0 3 7  0 3 6  0 3 6  0 1 3  0 7 17  0 39 94
0 64 152  0 64 152  0 64 152  0 64 152  0 64 152  0 64 152
0 62 148  0 56 134  0 56 133  0 38 90  0 16 39  0 0 0
0 0 0  0 0 0  0 0 0  0 0 0  0 0 0  0 0 0
0 0 0  0 0 0  0 0 0
0 0 0  0 0 0  0 0 0  0 0 0  0 0 0  0 0 0
0 0 0  0 0 0  0 0 0  0 0 0  0 46 109  0 63 152
0 64 152  0 64 152  0 63 152  0 63 152  0 63 152  0 64 152
0 64 152  0 64 152  0 64 152  0 64 152  0 64 152  0 64 152
0 60 144  0 61 144  0 47 113  0 6 14  0 0 0  0 0 0
0 0 0  0 0 0  0 0 0  0 0 0  0 43 99  0 54 138
0 61 145  0 61 144  0 60 144  0 59 141  0 64 152  0 64 152
0 64 152  0 64 152  0 64 152  0 64 152  0 64 152  0 64 152
0 60 145  0 29 71  0 0 0  0 0 0  0 0 0  0 0 0
0 0 0  0 0 0  0 0 0  0 0 0  0 0 0  0 0 0
0 0 0  0 0 0  0 0 0
0 0 0  0 0 0  0 0 0  0 0 0  0 0 0  0 0 0
0 0 0  0 0 0  0 0 0  0 2 5  0 61 145  0 64 152
0 64 152  0 64 152  0 64 152  0 63 152  0 64 152  0 64 152
0 63 152  0 64 152  0 64 152  0 64 152  0 64 152  0 64 152
0 64 152  0 64 152  0 63 152  0 50 119  0 0 0  0 0 0
0 0 0  0 0 0  0 0 0  0 68 104  0 89 172  0 53 143
0 64 152  0 64 152  0 64 152  0 64 152  0 64 152  0 64 152
0 64 152  0 64 152  0 64 152  0 64 152  0 64 152  0 64 152
0 64 152  0 64 152  0 10 23  0 0 0  0 0 0  0 0 0
0 0 0  0 0 0  0 0 0  0 0 0  0 0 0  0 0 0
0 0 0  0 0 0  0 0 0
0 0 0  0 0 0  0 0 0  0 0 0  0 0 0  0 0 0
0 0 0  0 0 0  0 0 0  0 17 42  0 64 152  0 64 152
0 64 152  0 63 152  0 64 152  0 64 152  0 64 152  0 64 152
0 64 152  0 64 152  0 64 152  0 64 152  0 63 152  0 64 152
0 64 152  0 64 152  0 63 152  0 60 144  0 0 0  0 0 0
0 0 0  0 0 0  0 0 0  0 130 197  0 111 189  0 54 142
0 63 152  0 64 152  0 64 152  0 64 152  0 63 152  0 64 152
0 64 152  0 64 152  0 64 152  0 64 152  0 64 152  0 64 152
0 64 152  0 63 152  0 41 97  0 0 0  0 0 0  0 0 0
0 0 0  0 0 0  0 0 0  0 0 0  0 0 0  0 0 0
0 0 0  0 0 0  0 0 0
0 0 0  0 0 0  0 0 0  0 0 0  0 0 0  0 0 0
0 0 0  0 0 0  0 0 0  0 24 58  0 64 152  0 64 152
0 64 152  0 64 152  0 64 152  0 64 152  0 64 152  0 64 152
0 64 152  0 64 152  0 64 152  0 64 152  0 64 152  0 63 152
0 64 152  0 63 152  0 63 152  0 44 104  0 0 0  0 0 0
0 0 0  0 0 0  0 20 32  0 134 208  0 125 199  0 62 147
0 59 149  0 64 152  0 64 152  0 64 152  0 64 152  0 63 152
0 63 152  0 64 152  0 64 152  0 64 152  0 64 152  0 64 152
0 64 152  0 63 152  0 53 128  0 0 0  0 0 0  0 0 0
0 0 0  0 0 0  0 0 0  0 0 0  0 0 0  0 0 0
0 0 0  0 0 0  0 0 0
0 0 0  0 0 0  0 0 0  0 0 0  0 0 0  0 0 0
0 0 0  0 0 0  0 0 0  0 38 91  0 64 152  0 64 152
0 64 152  0 64 152  0 64 152  0 64 152  0 64 152  0 63 152
0 64 152  0 63 152  0 63 152  0 64 152  0 64 152  0 64 152
0 64 152  0 64 152  0 64 152  0 22 54  0 0 0  0 0 0
0 0 0  0 0 0  0 54 85  0 128 204  0 140 213  0 86 167
0 51 142  0 64 152  0 64 152  0 64 152  0 64 152  0 64 152
0 63 152  0 64 152  0 64 152  0 63 152  0 64 152  0 64 152
0 64 152  0 64 152  0 64 152  0 13 31  0 0 0  0 0 0
0 0 0  0 0 0  0 0 0  0 0 0  0 0 0  0 0 0
0 0 0  0 0 0  0 0 0
0 0 0  0 0 0  0 0 0  0 0 0  0 0 0  0 0 0
0 0 0  0 0 0  0 0 0  0 59 139  0 64 152  0 64 152
0 64 152  0 64 152  0 64 152  0 64 152  0 64 152  0 64 152
0 64 152  0 63 152  0 63 152  0 64 152  0 64 152  0 64 152
0 64 152  0 64 152  0 64 152  0 4 8  0 0 0  0 0 0
0 0 0  0 0 0  0 72 114  0 128 204  0 139 212  0 113 188
0 54 142  0 63 151  0 64 152  0 64 152  0 63 152  0 63 152
0 63 152  0 64 152  0 64 152  0 63 152  0 64 152  0 64 152
0 64 152  0 64 152  0 64 152  0 42 102  0 0 0  0 0 0
0 0 0  0 0 0  0 0 0  0 0 0  0 0 0  0 0 0
0 0 0  0 0 0  0 0 0
0 0 0  0 0 0  0 0 0  0 0 0  0 0 0  0 0 0
0 0 0  0 0 0  0 11 26  0 64 152  0 64 152  0 64 152
0 64 152  0 64 152  0 64 152  0 64 152  0 64 152  0 64 152
0 64 152  0 64 152  0 64 152  0 64 152  0 63 152  0 64 152
0 64 152  0 64 152  0 51 122  0 0 0  0 0 0  0 0 0
0 0 0  0 0 0  0 97 153  0 128 204  0 130 205  0 134 206
0 73 155  0 54 144  0 64 152  0 64 152  0 64 152  0 64 152
0 63 152  0 63 152  0 64 152  0 64 152  0 63 152  0 64 152
0 64 152  0 64 152  0 64 152  0 63 150  0 1 4  0 0 0
0 0 0  0 0 0  0 0 0  0 0 0  0 0 0  0 0 0
0 0 0  0 0 0  0 0 0
0 0 0  0 0 0  0 0 0  0 0 0  0 0 0  0 0 0
0 0 0  0 0 0  0 31 74  0 63 152  0 64 152  0 64 152
0 64 152  0 64 152  0 64 152  0 64 152  0 64 152  0 64 152
0 64 152  0 64 152  0 64 152  0 64 152  0 63 152  0 64 152
0 64 152  0 64 152  0 31 73  0 0 0  0 0 0  0 0 0
0 0 0  0 11 18  0 128 203  0 128 204  0 128 203  0 142 214
0 100 178  0 51 140  0 64 152  0 64 152  0 64 152  0 64 152
0 63 152  0 64 152  0 64 152  0 64 152  0 63 152  0 64 152
0 64 152  0 63 152  0 64 152  0 64 152  0 28 67  0 0 0
0 0 0  0 0 0  0 0 0  0 0 0  0 0 0  0 0 0
0 0 0  0 0 0  0 0 0
0 0 0  0 0 0  0 0 0  0 0 0  0 0 0  0 0 0
0 0 0  0 0 0  0 49 118  0 64 152  0 64 152  0 64 152
0 64 152  0 64 152  0 64 152  0 64 152  0 64 152  0 64 152
0 64 152  0 64 152  0 63 152  0 64 152  0 64 152  0 64 152
0 64 152  0 64 152  0 12 28  0 0 0  0 0 0  0 0 0
0 0 0  0 46 72  0 128 204  0 129 204  0 129 204  0 133 208
0 125 199  0 64 150  0 59 149  0 64 152  0 64 152  0 64 152
0 63 152  0 64 152  0 64 152  0 63 152  0 63 152  0 64 152
0 64 152  0 64 152  0 64 152  0 64 152  0 56 132  0 0 0
0 0 0  0 0 0  0 0 0  0 0 0  0 0 0  0 0 0
0 0 0  0 0 0  0 0 0
0 0 0  0 0 0  0 0 0  0 0 0  0 0 0  0 0 0
0 0 0  0 4 9  0 63 151  0 64 152  0 64 152  0 64 152
0 64 152  0 64 152  0 64 153  0 64 152  0 63 152  0 64 152
0 64 152  0 64 152  0 64 152  0 64 152  0 64 152  0 64 152
0 64 152  0 57 137  0 0 0  0 0 0  0 0 0  0 0 0
0 0 0  0 81 128  0 129 204  0 128 204  0 128 204  0 130 205
0 136 208  0 77 160  0 53 144  0 64 152  0 64 152  0 64 152
0 64 152  0 64 152  0 64 152  0 63 152  0 64 152  0 64 152
0 64 152  0 64 152  0 64 152  0 63 152  0 64 152  0 7 16
0 0 0  0 0 0  0 0 0  0 0 0  0 0 0  0 0 0
0 0 0  0 0 0  0 0 0
0 0 0  0 0 0  0 0 0  0 0 0  0 0 0  0 0 0
0 0 0  0 24 57  0 64 152  0 64 152  0 64 152  0 64 152
0 64 152  0 64 152  0 64 152  0 64 152  0 64 152  0 64 152
0 64 152  0 64 152  0 64 152  0 64 152  0 63 152  0 64 152
0 64 152  0 42 100  0 0 0  0 0 0  0 0 0  0 0 0
0 0 0  0 121 191  0 129 204  0 129 204  0 128 204  0 129 204
0 140 213  0 97 176  0 50 141  0 64 152  0 64 152  0 63 152
0 63 152  0 64 152  0 64 152  0 64 152  0 64 152  0 64 152
0 64 152  0 63 152  0 64 152  0 64 152  0 63 152  0 26 63
0 0 0  0 0 0  0 0 0  0 0 0  0 0 0  0 0 0
0 0 0  0 0 0  0 0 0
0 0 0  0 0 0  0 0 0  0 0 0  0 0 0  0 0 0
0 0 0  0 35 82  0 64 152  0 64 152  0 63 152  0 64 152
0 64 152  0 64 152  0 63 152  0 64 152  0 64 152  0 63 152
0 63 152  0 64 152  0 63 152  0 63 152  0 64 152  0 64 152
0 64 152  0 35 84  0 0 0  0 0 0  0 0 0  0 0 0
0 26 41  0 128 204  0 129 204  0 129 204  0 128 204  0 129 204
0 134 209  0 122 195  0 60 146  0 59 149  0 64 152  0 64 152
0 64 152  0 64 152  0 64 152  0 63 152  0 63 152  0 64 152
0 64 152  0 63 152  0 63 152  0 63 152  0 63 152  0 52 125
0 0 0  0 0 0  0 0 0  0 0 0  0 0 0  0 0 0
0 0 0  0 0 0  0 0 0
0 0 0  0 0 0  0 0 0  0 0 0  0 0 0  0 0 0
0 0 0  0 44 105  0 64 152  0 64 152  0 63 152  0 63 152
0 64 152  0 63 152  0 64 152  0 64 152  0 63 152  0 63 152
0 64 152  0 64 152  0 64 152  0 64 152  0 63 152  0 64 152
0 64 152  0 19 45  0 0 0  0 0 0  0 0 0  0 0 0
0 65 104  0 129 204  0 128 204  0 128 204  0 129 204  0 129 204
0 128 204  0 140 212  0 84 166  0 51 143  0 64 152  0 64 152
0 64 152  0 64 152  0 64 152  0 64 152  0 64 152  0 64 152
0 63 152  0 63 152  0 64 152  0 64 152  0 64 152  0 64 152
0 11 27  0 0 0  0 0 0  0 0 0  0 0 0  0 0 0
0 0 0  0 0 0  0 0 0
0 0 0  0 0 0  0 0 0  0 0 0  0 0 0  0 0 0
0 1 2  0 60 145  0 64 152  0 63 152  0 64 152  0 63 152
0 64 152  0 64 152  0 64 152  0 63 152  0 64 152  0 63 152
0 64 152  0 64 152  0 64 152  0 64 152  0 63 152  0 64 152
0 61 146  0 1 1  0 0 0  0 0 0  0 0 0  0 0 0
0 91 144  0 128 204  0 129 204  0 129 204  0 129 204  0 128 204
0 128 204  0 139 213  0 111 187  0 54 142  0 63 152  0 64 152
0 64 152  0 64 152  0 64 152  0 64 152  0 64 152  0 64 152
0 64 152  0 64 152  0 64 152  0 64 152  0 64 152  0 64 152
0 41 98  0 0 0  0 0 0  0 0 0  0 0 0  0 0 0
0 0 0  0 0 0  0 0 0
0 0 0  0 0 0  0 0 0  0 0 0  0 0 0  0 0 0
0 15 35  0 64 152  0 64 152  0 64 152  0 64 152  0 64 152
0 64 152  0 64 152  0 64 152  0 64 152  0 64 152  0 63 152
0 63 152  0 64 152  0 64 152  0 64 152  0 64 152  0 64 152
0 46 110  0 0 0  0 0 0  0 0 0  0 0 0  0 0 0
0 107 170  0 128 204  0 129 204  0 129 204  0 129 204  0 128 204
0 129 204  0 131 206  0 132 205  0 72 156  0 56 146  0 64 152
0 63 152  0 63 152  0 64 152  0 64 152  0 64 152  0 64 152
0 64 152  0 63 152  0 64 152  0 64 152  0 64 152  0 64 152
0 61 148  0 3 6  0 0 0  0 0 0  0 0 0  0 0 0
0 0 0  0 0 0  0 0 0
0 0 0  0 0 0  0 0 0  0 0 0  0 0 0  0 0 0
0 35 83  0 64 152  0 64 152  0 64 152  0 64 152  0 64 152
0 64 152  0 63 152  0 64 152  0 64 152  0 64 152  0 64 152
0 64 152  0 64 152  0 64 152  0 64 152  0 64 152  0 63 152
0 25 61  0 0 0  0 0 0  0 0 0  0 0 0  0 19 30
0 129 204  0 129 204  0 129 204  0 129 204  0 129 204  0 129 204
0 129 204  0 128 204  0 142 215  0 89 171  0 50 141  0 64 152
0 64 152  0 64 152  0 64 152  0 63 152  0 64 152  0 64 152
0 64 152  0 64 152  0 64 152  0 64 152  0 64 152  0 64 152
0 63 152  0 20 48  0 0 0  0 0 0  0 0 0  0 0 0
0 0 0  0 0 0  0 0 0
0 0 0  0 0 0  0 0 0  0 0 0  0 0 0  0 0 0
0 54 128  0 64 152  0 64 152  0 64 152  0 63 152  0 63 152
0 64 152  0 64 152  0 63 152  0 63 152  0 64 152  0 64 152
0 64 152  0 64 152  0 64 152  0 64 152  0 63 152  0 64 152
0 7 16  0 0 0  0 0 0  0 0 0  0 0 0  0 61 96
0 128 204  0 129 204  0 129 204  0 129 204  0 129 204  0 129 204
0 129 204  0 128 204  0 139 213  0 107 183  0 52 142  0 64 152
0 64 152  0 64 152  0 63 152  0 64 152  0 64 152  0 63 152
0 64 152  0 64 152  0 64 152  0 63 152  0 64 152  0 64 152
0 63 152  0 37 88  0 0 0  0 0 0  0 0 0  0 0 0
0 0 0  0 0 0  0 0 0
0 0 0  0 0 0  0 0 0  0 0 0  0 0 0  0 7 16
0 63 152  0 64 152  0 64 152  0 64 152  0 63 152  0 64 152
0 64 152  0 64 152  0 64 152  0 64 152  0 64 152  0 63 152
0 63 152  0 63 152  0 64 152  0 64 152  0 64 152  0 54 128
0 0 0  0 0 0  0 0 0  0 0 0  0 0 0  0 51 81
0 129 204  0 128 204  0 129 204  0 129 204  0 128 204  0 129 204
0 129 204  0 128 204  0 131 206  0 133 208  0 72 158  0 56 146
0 64 152  0 64 152  0 64 152  0 64 152  0 64 152  0 64 152
0 64 152  0 63 152  0 64 152  0 64 152  0 64 152  0 64 152
0 64 152  0 60 142  0 1 1  0 0 0  0 0 0  0 0 0
0 0 0  0 0 0  0 0 0
0 0 0  0 0 0  0 0 0  0 0 0  0 0 0  0 28 66
0 63 152  0 64 152  0 64 152  0 64 152  0 64 152  0 64 152
0 63 152  0 63 152  0 64 152  0 64 152  0 64 152  0 64 152
0 64 152  0 64 152  0 64 152  0 64 152  0 64 152  0 33 79
0 0 0  0 0 0  0 0 0  0 0 0  0 0 0  0 0 0
0 88 141  0 129 204  0 129 204  0 129 204  0 129 204  0 129 204
0 129 204  0 129 204  0 128 203  0 142 215  0 107 187  0 53 144
0 63 152  0 64 152  0 64 152  0 64 152  0 64 152  0 64 152
0 64 152  0 63 152  0 64 152  0 64 152  0 64 152  0 64 152
0 63 152  0 64 152  0 25 58  0 0 0  0 0 0  0 0 0
0 0 0  0 0 0  0 0 0
0 0 0  0 0 0  0 0 0  0 0 0  0 0 0  0 43 102
0 64 152  0 64 152  0 64 152  0 64 152  0 64 152  0 64 152
0 64 152  0 64 152  0 64 152  0 64 152  0 64 152  0 64 152
0 64 152  0 64 152  0 64 152  0 64 152  0 64 152  0 25 61
0 0 0  0 0 0  0 0 0  0 0 0  0 0 0  0 0 0
0 0 0  0 19 30  0 24 38  0 22 35  0 22 35  0 22 35
0 22 35  0 22 35  0 22 35  0 24 36  0 24 42  0 53 144
0 63 152  0 63 152  0 64 152  0 64 152  0 64 152  0 64 152
0 64 152  0 64 152  0 64 152  0 63 152  0 64 152  0 64 152
0 64 152  0 64 152  0 51 122  0 0 0  0 0 0  0 0 0
0 0 0  0 0 0  0 0 0
0 0 0  0 0 0  0 0 0  0 0 0  0 0 0  0 52 123
0 64 152  0 64 152  0 63 152  0 64 152  0 64 152  0 64 152
0 64 152  0 64 152  0 64 152  0 64 152  0 64 152  0 64 152
0 63 152  0 64 152  0 64 152  0 64 152  0 64 152  0 13 32
0 0 0  0 0 0  0 0 0  0 0 0  0 0 0  0 0 0
0 0 0  0 0 0  0 0 0  0 0 0  0 0 0  0 0 0
0 0 0  0 0 0  0 0 0  0 0 0  0 0 0  0 38 97
0 64 152  0 64 152  0 64 152  0 64 152  0 64 152  0 64 152
0 64 152  0 63 152  0 64 152  0 64 152  0 64 152  0 64 152
0 64 152  0 64 152  0 63 152  0 12 28  0 0 0  0 0 0
0 0 0  0 0 0  0 0 0
0 0 0  0 0 0  0 0 0  0 0 0  0 3 8  0 62 148
0 64 152  0 64 152  0 64 152  0 64 152  0 64 152  0 64 152
0 64 152  0 63 152  0 64 152  0 64 152  0 64 152  0 64 152
0 64 152  0 64 152  0 64 152  0 64 152  0 58 137  0 0 0
0 0 0  0 0 0  0 0 0  0 0 0  0 0 0  0 0 0
0 0 0  0 0 0  0 0 0  0 0 0  0 0 0  0 0 0
0 0 0  0 0 0  0 0 0  0 0 0  0 0 0  0 24 56
0 64 152  0 64 152  0 64 152  0 64 152  0 64 152  0 64 152
0 64 152  0 63 152  0 64 152  0 64 152  0 64 152  0 64 152
0 63 152  0 64 152  0 64 152  0 34 80  0 0 0  0 0 0
0 0 0  0 0 0  0 0 0
0 0 0  0 0 0  0 0 0  0 0 0  0 19 45  0 64 152
0 63 152  0 63 152  0 64 152  0 64 152  0 64 152  0 64 152
0 63 152  0 63 152  0 64 152  0 63 152  0 64 152  0 64 152
0 64 152  0 64 152  0 64 152  0 64 152  0 41 98  0 0 0
0 0 0  0 0 0  0 0 0  0 0 0  0 0 0  0 0 0
0 0 0  0 0 0  0 0 0  0 0 0  0 0 0  0 0 0
0 0 0  0 0 0  0 0 0  0 0 0  0 0 0  0 7 17
0 64 152  0 64 152  0 64 152  0 64 152  0 64 152  0 64 152
0 64 152  0 63 152  0 64 152  0 64 152  0 64 152  0 64 152
0 64 152  0 64 152  0 64 152  0 48 113  0 0 0  0 0 0
0 0 0  0 0 0  0 0 0
0 0 0  0 0 0  0 0 0  0 0 0  0 39 92  0 64 152
0 63 152  0 63 152  0 64 152  0 63 152  0 64 152  0 63 152
0 63 152  0 64 152  0 64 152  0 64 152  0 64 152  0 63 152
0 64 152  0 64 152  0 63 152  0 63 152  0 21 49  0 0 0
0 0 0  0 0 0  0 0 0  0 0 0  0 0 0  0 0 0
0 0 0  0 0 0  0 0 0  0 0 0  0 0 0  0 0 0
0 0 0  0 0 0  0 0 0  0 0 0  0 0 0  0 0 0
0 43 104  0 64 152  0 64 152  0 64 152  0 64 152  0 64 152
0 64 152  0 64 152  0 64 152  0 64 152  0 64 152  0 64 152
0 64 152  0 64 152  0 63 152  0 64 152  0 9 22  0 0 0
0 0 0  0 0 0  0 0 0
0 0 0  0 0 0  0 0 0  0 0 0  0 57 137  0 64 152
0 64 152  0 64 152  0 64 152  0 64 152  0 64 152  0 64 152
0 64 152  0 64 152  0 64 152  0 64 152  0 64 152  0 63 152
0 64 152  0 64 152  0 64 152  0 64 152  0 3 7  0 0 0
0 0 0  0 0 0  0 0 0  0 0 0  0 0 0  0 0 0
0 0 0  0 0 0  0 0 0  0 0 0  0 0 0  0 0 0
0 0 0  0 0 0  0 0 0  0 0 0  0 0 0  0 0 0
0 15 36  0 64 152  0 64 152  0 64 152  0 64 152  0 63 152
0 64 152  0 64 152  0 64 152  0 64 152  0 64 152  0 64 152
0 63 152  0 64 152  0 64 152  0 63 152  0 36 85  0 0 0
0 0 0  0 0 0  0 0 0
0 0 0  0 0 0  0 0 0  0 10 25  0 64 152  0 64 152
0 64 152  0 64 152  0 64 152  0 64 152  0 63 152  0 64 152
0 64 152  0 64 152  0 63 152  0 64 152  0 64 152  0 63 152
0 64 152  0 64 152  0 64 152  0 49 117  0 0 0  0 0 0
0 0 0  0 0 0  0 0 0  0 0 0  0 0 0  0 0 0
0 0 0  0 0 0  0 0 0  0 0 0  0 0 0  0 0 0
0 0 0  0 0 0  0 0 0  0 0 0  0 0 0  0 0 0
0 0 0  0 57 137  0 64 152  0 64 152  0 64 152  0 63 152
0 64 152  0 64 152  0 64 152  0 64 152  0 63 152  0 63 152
0 63 152  0 64 152  0 64 152  0 64 152  0 59 141  0 0 0
0 0 0  0 0 0  0 0 0
0 0 0  0 0 0  0 2 4  0 31 74  0 64 152  0 64 152
0 64 152  0 64 152  0 63 152  0 64 152  0 64 152  0 64 152
0 64 152  0 64 152  0 64 152  0 63 152  0 63 152  0 64 152
0 64 152  0 64 152  0 64 152  0 28 67  0 0 0  0 0 0
0 0 0  0 0 0  0 0 0  0 0 0  0 0 0  0 0 0
0 0 0  0 0 0  0 0 0  0 0 0  0 0 0  0 0 0
0 0 0  0 0 0  0 0 0  0 0 0  0 0 0  0 0 0
0 0 0  0 28 66  0 64 152  0 64 152  0 64 152  0 64 152
0 64 152  0 64 152  0 64 152  0 64 152  0 64 152  0 63 152
0 64 152  0 64 152  0 63 152  0 64 152  0 64 152  0 24 57
0 0 0  0 0 0  0 0 0
0 0 0  0 0 0  0 17 41  0 48 114  0 64 152  0 64 152
0 63 152  0 64 152  0 63 152  0 64 152  0 63 152  0 64 152
0 63 152  0 64 152  0 64 152  0 64 152  0 63 152  0 63 152
0 64 152  0 63 152  0 64 152  0 13 31  0 0 0  0 0 0
0 0 0  0 0 0  0 0 0  0 0 0  0 0 0  0 0 0
0 0 0  0 0 0  0 0 0  0 0 0  0 0 0  0 0 0
0 0 0  0 0 0  0 0 0  0 0 0  0 0 0  0 0 0
0 0 0  0 5 12  0 64 152  0 63 152  0 64 152  0 63 152
0 64 152  0 64 152  0 64 152  0 63 152  0 64 152  0 64 152
0 64 152  0 64 152  0 64 152  0 63 152  0 64 152  0 46 110
0 0 0  0 0 0  0 0 0
0 0 0  0 0 0  0 37 88  0 64 152  0 63 152  0 64 152
0 63 152  0 64 152  0 64 152  0 64 152  0 63 152  0 64 152
0 64 153  0 64 152  0 64 152  0 64 152  0 64 152  0 64 152
0 64 152  0 64 152  0 47 113  0 0 1  0 0 0  0 0 0
0 0 0  0 0 0  0 0 0  0 0 0  0 0 0  0 0 0
0 0 0  0 0 0  0 0 0  0 0 0  0 0 0  0 0 0
0 0 0  0 0 0  0 0 0  0 0 0  0 0 0  0 0 0
0 0 0  0 0 0  0 43 103  0 63 152  0 64 152  0 64 152
0 64 152  0 64 152  0 64 152  0 64 152  0 64 152  0 63 152
0 64 152  0 64 152  0 64 152  0 63 152  0 64 152  0 57 135
0 0 0  0 0 0  0 0 0
0 0 0  0 0 0  0 32 76  0 64 152  0 64 152  0 64 152
0 64 152  0 64 152  0 64 152  0 63 152  0 64 152  0 64 152
0 64 152  0 64 152  0 64 152  0 64 152  0 64 152  0 64 152
0 64 152  0 46 110  0 0 0  0 0 0  0 0 0  0 0 0
0 0 0  0 0 0  0 0 0  0 0 0  0 0 0  0 0 0
0 0 0  0 0 0  0 0 0  0 0 0  0 0 0  0 0 0
0 0 0  0 0 0  0 0 0  0 0 0  0 0 0  0 0 0
0 0 0  0 0 0  0 0 0  0 45 107  0 63 152  0 63 152
0 64 152  0 63 152  0 64 152  0 64 152  0 64 152  0 64 152
0 64 152  0 64 152  0 63 152  0 64 152  0 64 152  0 59 139
0 0 0  0 0 0  0 0 0
0 0 0  0 0 0  0 2 5  0 21 49  0 58 138  0 63 150
0 63 150  0 63 151  0 62 150  0 62 150  0 63 150  0 63 150
0 63 150  0 62 150  0 62 150  0 63 151  0 62 147  0 56 133
0 32 76  0 0 0  0 0 0  0 0 0  0 0 0  0 0 0
0 0 0  0 0 0  0 0 0  0 0 0  0 0 0  0 0 0
0 0 0  0 0 0  0 0 0  0 0 0  0 0 0  0 0 0
0 0 0  0 0 0  0 0 0  0 0 0  0 0 0  0 0 0
0 0 0  0 0 0  0 0 0  0 0 0  0 31 75  0 55 131
0 61 145  0 61 147  0 61 146  0 61 146  0 61 146  0 61 146
0 61 146  0 61 146  0 61 146  0 61 146  0 58 138  0 22 53
0 0 0  0 0 0  0 0 0
0 0 0  0 0 0  0 0 0  0 1 2  0 29 70  0 35 84
0 36 85  0 35 85  0 35 84  0 35 84  0 35 84  0 35 84
0 35 84  0 35 84  0 35 84  0 36 85  0 34 80  0 26 63
0 5 11  0 0 0  0 0 0  0 0 0  0 0 0  0 0 0
0 0 0  0 0 0  0 0 0  0 0 0  0 0 0  0 0 0
0 0 0  0 0 0  0 0 0  0 0 0  0 0 0  0 0 0
0 0 0  0 0 0  0 0 0  0 0 0  0 0 0  0 0 0
0 0 0  0 0 0  0 0 0  0 0 0  0 4 10  0 25 60
0 33 77  0 34 80  0 33 80  0 33 79  0 33 79  0 33 79
0 33 79  0 33 79  0 34 80  0 33 79  0 29 70  0 3 7
0 0 0  0 0 0  0 0 0
0 0 0  0 0 0  0 0 0  0 0 0  0 0 0  0 0 0
0 0 0  0 0 0  0 0 0  0 0 0  0 0 0  0 0 0
0 0 0  0 0 0  0 0 0  0 0 0  0 0 0  0 0 0
0 0 0  0 0 0  0 0 0  0 0 0  0 0 0  0 0 0
0 0 0  0 0 0  0 0 0  0 0 0  0 0 0  0 0 0
0 0 0  0 0 0  0 0 0  0 0 0  0 0 0  0 0 0
0 0 0  0 0 0  0 0 0  0 0 0  0 0 0  0 0 0
0 0 0  0 0 0  0 0 0  0 0 0  0 0 0  0 0 0
0 0 0  0 0 0  0 0 0  0 0 0  0 0 0  0 0 0
0 0 0  0 0 0  0 0 0  0 0 0  0 0 0  0 0 0
0 0 0  0 0 0  0 0 0
0 0 0  0 0 0  0 0 0  0 0 0  0 0 0  0 0 0
0 0 0  0 0 0  0 0 0  0 0 0  0 0 0  0 0 0
0 0 0  0 0 0  0 0 0  0 0 0  0 0 0  0 0 0
0 0 0  0 0 0  0 0 0  0 0 0  0 0 0  0 0 0
0 0 0  0 0 0  0 0 0  0 0 0  0 0 0  0 0 0
0 0 0  0 0 0  0 0 0  0 0 0  0 0 0  0 0 0
0 0 0  0 0 0  0 0 0  0 0 0  0 0 0  0 0 0
0 0 0  0 0 0  0 0 0  0 0 0  0 0 0  0 0 0
0 0 0  0 0 0  0 0 0  0 0 0  0 0 0  0 0 0
0 0 0  0 0 0  0 0 0  0 0 0  0 0 0  0 0 0
0 0 0  0 0 0  0 0 0
0 0 0  0 0 0  0 0 0  0 0 0  0 0 0  0 0 0
0 0 0  0 0 0  0 0 0  0 0 0  0 0 0  0 0 0
0 0 0  0 0 0  0 0 0  0 0 0  0 0 0  0 0 0
0 0 0  0 0 0  0 0 0  0 0 0  0 0 0  0 0 0
0 0 0  0 0 0  0 0 0  0 0 0  0 0 0  0 0 0
0 0 0  0 0 0  0 0 0  0 0 0  0 0 0  0 0 0
0 0 0  0 0 0  0 0 0  0 0 0  0 0 0  0 0 0
0 0 0  0 0 0  0 0 0  0 0 0  0 0 0  0 0 0
0 0 0  0 0 0  0 0 0  0 0 0  0 0 0  0 0 0
0 0 0  0 0 0  0 0 0  0 0 0  0 0 0  0 0 0
0 0 0  0 0 0  0 0 0
0 0 0  0 0 0  0 0 0  0 0 0  0 0 0  0 0 0
0 0 0  0 0 0  0 0 0  0 0 0  0 0 0  0 0 0
0 0 0  0 0 0  0 0 0  0 0 0  0 0 0  0 0 0
0 0 0  0 0 0  0 0 0  0 0 0  0 0 0  0 0 0
0 0 0  0 0 0  0 0 0  0 0 0  0 0 0  0 0 0
0 0 0  0 0 0  0 0 0  0 0 0  0 0 0  0 0 0
0 0 0  0 0 0  0 0 0  0 0 0  0 0 0  0 0 0
0 0 0  0 0 0  0 0 0  0 0 0  0 0 0  0 0 0
0 0 0  0 0 0  0 0 0  0 0 0  0 0 0  0 0 0
0 0 0  0 0 0  0 0 0  0 0 0  0 0 0  0 0 0
0 0 0  0 0 0  0 0 0
0 0 0  0 0 0  0 0 0  0 0 0  0 0 0  0 0 0
0 0 0  0 0 0  0 0 0  0 0 0  0 0 0  0 0 0
0 0 0  0 0 0  0 0 0  0 0 0  0 0 0  0 0 0
0 0 0  0 0 0  0 0 0  0 0 0  0 0 0  0 0 0
0 0 0  0 0 0  0 0 0  0 0 0  0 0 0  0 0 0
0 0 0  0 0 0  0 0 0  0 0 0  0 0 0  0 0 0
0 0 0  0 0 0  0 0 0  0 0 0  0 0 0  0 0 0
0 0 0  0 0 0  0 0 0  0 0 0  0 0 0  0 0 0
0 0 0  0 0 0  0 0 0  0 0 0  0 0 0  0 0 0
0 0 0  0 0 0  0 0 0  0 0 0  0 0 0  0 0 0
0 0 0  0 0 0  0 0 0
0 0 0  0 0 0  0 0 0  0 0 0  0 0 0  0 0 0
0 0 0  0 0 0  0 0 0  0 0 0  0 0 0  0 0 0
0 0 0  0 0 0  0 0 0  0 0 0  0 0 0  0 0 0
0 0 0  0 0 0  0 0 0  0 0 0  0 0 0  0 0 0
0 0 0  0 0 0  0 0 0  0 0 0  0 0 0  0 0 0
0 0 0  0 0 0  0 0 0  0 0 0  0 0 0  0 0 0
0 0 0  0 0 0  0 0 0  0 0 0  0 0 0  0 0 0
0 0 0  0 0 0  0 0 0  0 0 0  0 0 0  0 0 0
0 0 0  0 0 0  0 0 0  0 0 0  0 0 0  0 0 0
0 0 0  0 0 0  0 0 0  0 0 0  0 0 0  0 0 0
0 0 0  0 0 0  0 0 0
0 0 0  0 0 0  0 0 0  0 0 0  0 0 0  0 0 0
0 0 0  0 0 0  0 0 0  0 0 0  0 0 0  0 0 0
0 0 0  0 0 0  0 0 0  0 0 0  0 0 0  0 0 0
0 0 0  0 0 0  0 0 0  0 0 0  0 0 0  0 0 0
0 0 0  0 0 0  0 0 0  0 0 0  0 0 0  0 0 0
0 0 0  0 0 0  0 0 0  0 0 0  0 0 0  0 0 0
0 0 0  0 0 0  0 0 0  0 0 0  0 0 0  0 0 0
0 0 0  0 0 0  0 0 0  0 0 0  0 0 0  0 0 0
0 0 0  0 0 0  0 0 0  0 0 0  0 0 0  0 0 0
0 0 0  0 0 0  0 0 0  0 0 0  0 0 0  0 0 0
0 0 0  0 0 0  0 0 0
0 0 0  0 0 0  0 0 0  0 0 0  0 0 0  0 0 0
0 0 0  0 0 0  0 0 0  0 0 0  0 0 0  0 0 0
0 0 0  0 0 0  0 0 0  0 0 0  0 0 0  0 0 0
0 0 0  0 0 0  0 0 0  0 0 0  0 0 0  0 0 0
0 0 0  0 0 0  0 0 0  0 0 0  0 0 0  0 0 0
0 0 0  0 0 0  0 0 0  0 0 0  0 0 0  0 0 0
0 0 0  0 0 0  0 0 0  0 0 0  0 0 0  0 0 0
0 0 0  0 0 0  0 0 0  0 0 0  0 0 0  0 0 0
0 0 0  0 0 0  0 0 0  0 0 0  0 0 0  0 0 0
0 0 0  0 0 0  0 0 0  0 0 0  0 0 0  0 0 0
0 0 0  0 0 0  0 0 0
0 0 0  0 0 0  0 0 0  0 0 0  0 0 0  0 0 0
0 0 0  0 0 0  0 0 0  0 0 0  0 0 0  0 0 0
0 0 0  0 0 0  0 0 0  0 0 0  0 0 0  0 0 0
0 0 0  0 0 0  0 0 0  0 0 0  0 0 0  0 0 0
0 0 0  0 0 0  0 0 0  0 0 0  0 0 0  0 0 0
0 0 0  0 0 0  0 0 0  0 0 0  0 0 0  0 0 0
0 0 0  0 0 0  0 0 0  0 0 0  0 0 0  0 0 0
0 0 0  0 0 0  0 0 0  0 0 0  0 0 0  0 0 0
0 0 0  0 0 0  0 0 0  0 0 0  0 0 0  0 0 0
0 0 0  0 0 0  0 0 0  0 0 0  0 0 0  0 0 0
0 0 0  0 0 0  0 0 0
0 0 0  0 0 0  0 0 0  0 0 0  0 0 0  0 0 0
0 0 0  0 0 0  0 0 0  0 0 0  0 0 0  0 0 0
0 0 0  0 0 0  0 0 0  0 0 0  0 0 0  0 0 0
0 0 0  0 0 0  0 0 0  0 0 0  0 0 0  0 0 0
0 0 0  0 0 0  0 0 0  0 0 0  0 0 0  0 0 0
0 0 0  0 0 0  0 0 0  0 0 0  0 0 0  0 0 0
0 0 0  0 0 0  0 0 0  0 0 0  0 0 0  0 0 0
0 0 0  0 0 0  0 0 0  0 0 0  0 0 0  0 0 0
0 0 0  0 0 0  0 0 0  0 0 0  0 0 0  0 0 0
0 0 0  0 0 0  0 0 0  0 0 0  0 0 0  0 0 0
0 0 0  0 0 0  0 0 0
0 0 0  0 0 0  0 0 0  0 0 0  0 0 0  0 0 0
0 0 0  0 0 0  0 0 0  0 0 0  0 0 0  0 0 0
0 0 0  0 0 0  0 0 0  0 0 0  0 0 0  0 0 0
0 0 0  0 0 0  0 0 0  0 0 0  0 0 0  0 0 0
0 0 0  0 0 0  0 0 0  0 0 0  0 0 0  0 0 0
0 0 0  0 0 0  0 0 0  0 0 0  0 0 0  0 0 0
0 0 0  0 0 0  0 0 0  0 0 0  0 0 0  0 0 0
0 0 0  0 0 0  0 0 0  0 0 0  0 0 0  0 0 0
0 0 0  0 0 0  0 0 0  0 0 0  0 0 0  0 0 0
0 0 0  0 0 0  0 0 0  0 0 0  0 0 0  0 0 0
0 0 0  0 0 0  0 0 0
0 0 0  0 0 0  0 0 0  0 0 0  0 0 0  0 0 0
0 0 0  0 0 0  0 0 0  0 0 0  0 0 0  0 0 0
0 0 0  0 0 0  0 0 0  0 0 0  0 0 0  0 0 0
0 0 0  0 0 0  0 0 0  0 0 0  0 0 0  0 0 0
0 0 0  0 0 0  0 0 0  0 0 0  0 0 0  0 0 0
0 0 0  0 0 0  0 0 0  0 0 0  0 0 0  0 0 0
0 0 0  0 0 0  0 0 0  0 0 0  0 0 0  0 0 0
0 0 0  0 0 0  0 0 0  0 0 0  0 0 0  0 0 0
0 0 0  0 0 0  0 0 0  0 0 0  0 0 0  0 0 0
0 0 0  0 0 0  0 0 0  0 0 0  0 0 0  0 0 0
0 0 0  0 0 0  0 0 0
0 0 0  0 0 0  0 0 0  0 0 0  0 0 0  0 0 0
0 0 0  0 0 0  0 0 0  0 0 0  0 0 0  0 0 0
0 0 0  0 0 0  0 0 0  0 0 0  0 0 0  0 0 0
0 0 0  0 0 0  0 0 0  0 0 0  0 0 0  0 0 0
0 0 0  0 0 0  0 0 0  0 0 0  0 0 0  0 0 0
0 0 0  0 0 0  0 0 0  0 0 0  0 0 0  0 0 0
0 0 0  0 0 0  0 0 0  0 0 0  0 0 0  0 0 0
0 0 0  0 0 0  0 0 0  0 0 0  0 0 0  0 0 0
0 0 0  0 0 0  0 0 0  0 0 0  0 0 0  0 0 0
0 0 0  0 0 0  0 0 0  0 0 0  0 0 0  0 0 0
0 0 0  0 0 0  0 0 0
0 0 0  0 0 0  0 0 0  0 0 0  0 0 0  0 0 0
0 0 0  0 0 0  0 0 0  0 0 0  0 0 0  0 0 0
0 0 0  0 0 0  0 0 0  0 0 0  0 0 0  0 0 0
0 0 0  0 0 0  0 0 0  0 0 0  0 0 0  0 0 0
0 0 0  0 0 0  0 0 0  0 0 0  0 0 0  0 0 0
0 0 0  0 0 0  0 0 0  0 0 0  0 0 0  0 0 0
0 0 0  0 0 0  0 0 0  0 0 0  0 0 0  0 0 0
0 0 0  0 0 0  0 0 0  0 0 0  0 0 0  0 0 0
0 0 0  0 0 0  0 0 0  0 0 0  0 0 0  0 0 0
0 0 0  0 0 0  0 0 0  0 0 0  0 0 0  0 0 0
0 0 0  0 0 0  0 0 0
